icons/rows-16.svg

<svg width="16" height="17" viewBox="0 0 16 17" fill="none" xmlns="http://www.w3.org/2000/svg">
<g clip-path="url(#clip0)">
<path fill-rule="evenodd" clip-rule="evenodd" d="M14.25 0.25C15.2165 0.25 16 1.0335 16 2L16 6C16 6.9665 15.2165 7.75 14.25 7.75L1.75 7.75C0.7835 7.75 -2.93587e-07 6.9665 -2.5134e-07 6L-7.64949e-08 2C-3.4248e-08 1.0335 0.783502 0.249999 1.75 0.249999L14.25 0.25ZM14.5 2C14.5 1.86193 14.3881 1.75 14.25 1.75L1.75 1.75C1.61193 1.75 1.5 1.86193 1.5 2L1.5 6C1.5 6.13807 1.61193 6.25 1.75 6.25L14.25 6.25C14.3881 6.25 14.5 6.13807 14.5 6L14.5 2Z" fill="black"/>
<path fill-rule="evenodd" clip-rule="evenodd" d="M14.25 8.75C15.2165 8.75 16 9.5335 16 10.5L16 14.5C16 15.4665 15.2165 16.25 14.25 16.25L1.75 16.25C0.7835 16.25 -2.93587e-07 15.4665 -2.5134e-07 14.5L-7.64949e-08 10.5C-3.4248e-08 9.5335 0.783502 8.75 1.75 8.75L14.25 8.75ZM14.5 10.5C14.5 10.3619 14.3881 10.25 14.25 10.25L1.75 10.25C1.61193 10.25 1.5 10.3619 1.5 10.5L1.5 14.5C1.5 14.6381 1.61193 14.75 1.75 14.75L14.25 14.75C14.3881 14.75 14.5 14.6381 14.5 14.5L14.5 10.5Z" fill="black"/>
</g>
<defs>
<clipPath id="clip0">
<rect width="16" height="16" fill="white" transform="translate(0 0.25)"/>
</clipPath>
</defs>
</svg>

<svg xmlns="http://www.w3.org/2000/svg" width="16" height="17" viewBox="0 0 16 17"><path fill-rule="evenodd" d="M14.25.25C15.216.25 16 1.034 16 2v4a1.75 1.75 0 01-1.75 1.75H1.75A1.75 1.75 0 010 6V2C0 1.034.784.25 1.75.25h12.5zM14.5 2a.25.25 0 00-.25-.25H1.75A.25.25 0 001.5 2v4c0 .138.112.25.25.25h12.5A.25.25 0 0014.5 6V2zm-.25 6.75c.966 0 1.75.784 1.75 1.75v4a1.75 1.75 0 01-1.75 1.75H1.75A1.75 1.75 0 010 14.5v-4c0-.966.784-1.75 1.75-1.75h12.5zm.25 1.75a.25.25 0 00-.25-.25H1.75a.25.25 0 00-.25.25v4c0 .138.112.25.25.25h12.5a.25.25 0 00.25-.25v-4z"/></svg>
